X:1
T:Title
%%score { ( 1 3 ) | 2 }
L:1/8
M:4/4
K:Ab
V:1 treble nm="Grand Piano"
V:3 treble 
V:2 bass 
V:1
 z4 z2[Q:1/4=96] [CA]>[DB] | [Ec]>[Ec] [Ec]>[Fd] [Ec]2 [Ec]>[EB] | %2
 [FA]>[FA] [FA]>[FB] [FA]2 [FA]>[DF] | [CE]2 [CA]2 (3c_c=c [Ee]>[Ee] | [EB]6 [CA]>[DB] | %5
 [Ec]>[Ec] [Ec]>[Fd] [Ec]2 [Ec]>[EB] | [FA]>[FA] [FA]>[FB] [FA]2 [FA]>[DF] | [CE]2 e2 (3ecA c>B | %8
[M:3/4] [CA]6 |[M:1/4] c>e |[M:4/4] e3 e (3ecA (3ecA | [Af]3 e e2 c>d | e3 e (3ecA c>c | %13
 B6[K:bass][K:treble] z2 | [Ec]>[Ec] [Ec]>[Fd] [Ec]2 [Ec]>[EB] | %15
 [FA]>[FA] [FA]>[FB] [FA]2 [FA]>[DF] | [CE]2 e2 (3ecA c>B |[M:7/4] [CA]6 z2 z2 z4 |] %18
V:2
 z4 z2 [A,,A,]>[A,,A,] | [A,,A,]>[A,,A,] [A,,A,]>[A,,A,] [A,,A,]2 [A,,A,]>[C,A,] | %2
 [D,D]>[D,D] [D,D]>[D,D] [D,D]2 [D,D]>[D,A,] | [A,,A,]2 [A,,A,]2 (3[A,E][A,=D][A,E] [A,C]>[C,A,] | %4
 [E,G,]6 [A,,A,]>[A,,A,] | [A,,A,]>[A,,A,] [A,,A,]>[A,,A,] [A,,A,]2 [A,,A,]>[C,A,] | %6
 [D,D]>[D,D] [D,D]>[D,D] [D,D]2 [D,D]>[D,A,] | %7
 [A,,A,]2 [A,CE]2 (3[A,CE][A,E][A,CE] [E,A,E]>[E,G,D] |[M:3/4] [A,,A,]6 | %9
[M:1/4][K:treble] [A,E]>[A,CA] | %10
[M:4/4] [A,CA]3 [A,CA] (3[A,CA][A,E][A,CE] (3[A,CA][K:bass][A,E][A,CE] | %11
 [D,D]3[K:treble] [A,CA] [A,CA]2 [A,E]>[A,B,E] | %12
 [A,CA]3 [A,CA] (3[A,CA][K:bass][A,E][A,CE] [A,E]>[A,E] | [E,G,E]6 [C,A,]>[B,,G,] | %14
 [A,,A,]>[A,,A,] [A,,A,]>[A,,A,] [A,,A,]2 [A,,A,]>[C,A,] | %15
 [D,D]>[D,D] [D,D]>[D,D] [D,D]2 [D,D]>[D,A,] | %16
 [A,,A,]2 [A,CE]2 (3[A,CE][A,E][A,CE] [E,A,E]>[E,G,D] |[M:7/4] [A,,A,]6 z2 z2 z4 |] %18
V:3
 x8 | x8 | x8 | x8 | x8 | x8 | x8 | x8 |[M:3/4] x6 |[M:1/4] x2 |[M:4/4] x8 | x8 | x8 | %13
 z4 z z/[K:bass] D,/[K:treble] [EA]>[EB] | x8 | x8 | x8 |[M:7/4] x14 |] %18

